X: 57
T: Shepherd's Hey
O: England
N: Morris Ring
Z: 1997 by John Chambers <jc@trillian.mit.edu>
M: 4/4
L: 1/8
P: 6x(AABB)+AA
K: D
|: "D"f>g a>f "G"g2 g2 | "D"f>g a>f "A7"e2-e2 | "D"f>g a>f "G"g2 f>g | "A7"a2 A2 "D"d4 :|
d>e \
|: "D"f2 d2 "G"g4 | "D"f2 d2 "A7"e4 | "D"f>g a>f "G"g2 f>g | "A7"a2 A2 "D"d4 :|


